X:175
T: Dan Patsy's
S: Treoir
Z: B.Black
M: 12/8
L: 1/8
R: slide
K: G
B | d2 B BAB g2 e f2 e | d2 B BAB e3 e2 B |
d2 B BAB g2 e f2 e | d2 B cBA G3 G2 :|
e | f2 a e3 f2 a e2 f | d2 B BAB e3 e3 |
f2 a e2 g f2 a e2 f | d2 B cBA G3 G2 :|
